austria/municipalities/70715.svg

<?xml version="1.0" encoding="UTF-8"?>
<!DOCTYPE svg PUBLIC "-//W3C//DTD SVG 1.1//EN" "http://www.w3.org/Graphics/SVG/1.1/DTD/svg11.dtd">
<svg xmlns="http://www.w3.org/2000/svg" version="1.1" width="166px" height="192px" style="shape-rendering:geometricPrecision; text-rendering:geometricPrecision; image-rendering:optimizeQuality; fill-rule:evenodd; clip-rule:evenodd" xmlns:xlink="http://www.w3.org/1999/xlink">
<g><path style="opacity:1" fill="#060302" d="M -0.5,-0.5 C 54.8333,-0.5 110.167,-0.5 165.5,-0.5C 165.5,39.5 165.5,79.5 165.5,119.5C 157.044,159.623 132.711,183.623 92.5,191.5C 85.5,191.5 78.5,191.5 71.5,191.5C 30.9271,182.927 6.9271,158.261 -0.5,117.5C -0.5,78.1667 -0.5,38.8333 -0.5,-0.5 Z"/></g>
<g><path style="opacity:1" fill="#d63023" d="M 159.5,125.5 C 142.5,125.5 125.5,125.5 108.5,125.5C 108.5,144.833 108.5,164.167 108.5,183.5C 68.6188,194.132 37.1188,182.465 14,148.5C 8.25364,138.594 4.92031,127.927 4,116.5C 3.50001,78.8348 3.33335,41.1681 3.5,3.5C 38.5,3.5 73.5,3.5 108.5,3.5C 108.5,18.8333 108.5,34.1667 108.5,49.5C 126.167,49.5 143.833,49.5 161.5,49.5C 161.667,72.5024 161.5,95.5024 161,118.5C 160.814,121.036 160.314,123.369 159.5,125.5 Z"/></g>
<g><path style="opacity:1" fill="#fdfdfd" d="M -0.5,117.5 C 6.9271,158.261 30.9271,182.927 71.5,191.5C 47.5,191.5 23.5,191.5 -0.5,191.5C -0.5,166.833 -0.5,142.167 -0.5,117.5 Z"/></g>
<g><path style="opacity:1" fill="#fdfdfd" d="M 165.5,119.5 C 165.5,143.5 165.5,167.5 165.5,191.5C 141.167,191.5 116.833,191.5 92.5,191.5C 132.711,183.623 157.044,159.623 165.5,119.5 Z"/></g>
<g><path style="opacity:1" fill="#381711" d="M 159.5,125.5 C 143.008,126.497 126.342,126.83 109.5,126.5C 109.83,145.674 109.497,164.674 108.5,183.5C 108.5,164.167 108.5,144.833 108.5,125.5C 125.5,125.5 142.5,125.5 159.5,125.5 Z"/></g>
<g><path style="opacity:1" fill="#281610" d="M 69.5,149.5 C 65.5,149.5 61.5,149.5 57.5,149.5C 56.5318,147.393 56.1984,145.059 56.5,142.5C 48.9167,143.297 41.5834,144.297 34.5,145.5C 31.3807,144.208 28.3807,142.708 25.5,141C 24.9781,140.439 24.6448,139.772 24.5,139C 26.2426,137.163 28.2426,135.496 30.5,134C 38.539,133.728 46.539,134.228 54.5,135.5C 54.3333,95.4986 54.5,55.4986 55,15.5C 56.5562,10.9557 59.2228,7.289 63,4.5C 66.7772,7.289 69.4438,10.9557 71,15.5C 71.5,55.4986 71.6667,95.4986 71.5,135.5C 79.4328,134.018 87.4328,133.518 95.5,134C 97.7574,135.496 99.7574,137.163 101.5,139C 101.355,139.772 101.022,140.439 100.5,141C 97.6488,142.53 94.8154,144.03 92,145.5C 84.7607,144.162 77.2607,143.162 69.5,142.5C 69.5,144.833 69.5,147.167 69.5,149.5 Z"/></g>
<g><path style="opacity:1" fill="#e7a61b" d="M 57.5,144.5 C 61.1667,144.5 64.8333,144.5 68.5,144.5C 68.5,145.833 68.5,147.167 68.5,148.5C 64.8333,148.5 61.1667,148.5 57.5,148.5C 57.5,147.167 57.5,145.833 57.5,144.5 Z"/></g>
<g><path style="opacity:1" fill="#dd9e1d" d="M 62.5,133.5 C 65.7611,135.776 69.4278,137.11 73.5,137.5C 79.6415,136.456 85.8081,135.456 92,134.5C 94.8154,135.97 97.6488,137.47 100.5,139C 97.6488,140.53 94.8154,142.03 92,143.5C 76.7261,141.533 61.2261,141.033 45.5,142C 43.7818,142.346 42.1151,142.846 40.5,143.5C 39.8333,142.833 39.1667,142.167 38.5,141.5C 37.3122,142.84 35.8122,143.507 34,143.5C 31.1846,142.03 28.3512,140.53 25.5,139C 27.7339,138.031 29.7339,136.698 31.5,135C 34.1396,134.161 36.4729,134.661 38.5,136.5C 39.1924,135.975 39.6924,135.308 40,134.5C 46.3164,137.519 52.8164,138.019 59.5,136C 60.9423,135.623 61.9423,134.79 62.5,133.5 Z"/></g>
<g><path style="opacity:1" fill="#e7a51c" d="M 64.5,130.5 C 64.5,92.1667 64.5,53.8333 64.5,15.5C 63.5,15.5 62.5,15.5 61.5,15.5C 61.5,53.8333 61.5,92.1667 61.5,130.5C 60.089,132.539 58.089,133.539 55.5,133.5C 55.3333,94.8319 55.5,56.1652 56,17.5C 60.2163,3.40613 64.883,3.0728 70,16.5C 70.5,55.4986 70.6667,94.4986 70.5,133.5C 68.0532,133.385 66.0532,132.385 64.5,130.5 Z"/></g>
<g><path style="opacity:1" fill="#060302" d="M 64.5,130.5 C 63.6674,93.0022 63.1674,55.3356 63,17.5C 62.8326,55.3356 62.3326,93.0022 61.5,130.5C 61.5,92.1667 61.5,53.8333 61.5,15.5C 62.5,15.5 63.5,15.5 64.5,15.5C 64.5,53.8333 64.5,92.1667 64.5,130.5 Z"/></g>
<g><path style="opacity:1" fill="#7c271a" d="M 57.5,150.5 C 57.5,150.167 57.5,149.833 57.5,149.5C 61.5,149.5 65.5,149.5 69.5,149.5C 69.5,150.167 69.5,150.833 69.5,151.5C 65.6002,150.57 61.6002,150.237 57.5,150.5 Z"/></g>
<g><path style="opacity:1" fill="#22160f" d="M 57.5,150.5 C 61.6002,150.237 65.6002,150.57 69.5,151.5C 70.5668,156.782 70.7335,162.115 70,167.5C 69.2078,169.587 68.0412,171.421 66.5,173C 71.2177,178.395 70.051,181.895 63,183.5C 56.7152,182.094 55.2152,178.594 58.5,173C 54.92,165.631 54.5866,158.131 57.5,150.5 Z"/></g>
<g><path style="opacity:1" fill="#db9d1e" d="M 58.5,151.5 C 61.7766,151.216 64.9433,151.549 68,152.5C 70.6214,159.81 69.7881,166.643 65.5,173C 66.6278,174.468 67.2945,176.135 67.5,178C 67.7132,180.456 66.7132,181.456 64.5,181C 67.2594,178.426 66.926,176.26 63.5,174.5C 60.1156,176.271 59.7822,178.438 62.5,181C 61.2161,181.684 60.0495,181.517 59,180.5C 58.2217,177.725 58.7217,175.225 60.5,173C 56.1207,166.179 55.4541,159.012 58.5,151.5 Z"/></g>
<g><path style="opacity:1" fill="#cc3022" d="M 61.5,176.5 C 62.5,176.5 63.5,176.5 64.5,176.5C 64.5,177.5 64.5,178.5 64.5,179.5C 63.5,179.5 62.5,179.5 61.5,179.5C 61.5,178.5 61.5,177.5 61.5,176.5 Z"/></g>
</svg>

<svg xmlns="http://www.w3.org/2000/svg" width="166" height="192" style="shape-rendering:geometricPrecision;text-rendering:geometricPrecision;image-rendering:optimizeQuality;fill-rule:evenodd;clip-rule:evenodd"><path style="opacity:1" fill="#060302" d="M-.5-.5h166v120c-8.456 40.123-32.789 64.123-73 72h-21c-40.573-8.573-64.573-33.239-72-74V-.5z"/><path style="opacity:1" fill="#d63023" d="M159.5 125.5h-51v58c-39.881 10.632-71.381-1.035-94.5-35-5.746-9.906-9.08-20.573-10-32-.5-37.665-.667-75.332-.5-113h105v46h53c.167 23.002 0 46.002-.5 69-.186 2.536-.686 4.869-1.5 7z"/><path style="opacity:1" fill="#fdfdfd" d="M-.5 117.5c7.427 40.761 31.427 65.427 72 74h-72v-74zM165.5 119.5v72h-73c40.211-7.877 64.544-31.877 73-72z"/><path style="opacity:1" fill="#381711" d="M159.5 125.5a625.298 625.298 0 0 1-50 1 813 813 0 0 1-1 57v-58h51z"/><path style="opacity:1" fill="#281610" d="M69.5 149.5h-12c-.968-2.107-1.302-4.441-1-7a349.79 349.79 0 0 0-22 3 70.58 70.58 0 0 1-9-4.5 3.942 3.942 0 0 1-1-2c1.743-1.837 3.743-3.504 6-5 8.039-.272 16.039.228 24 1.5-.167-40.001 0-80.001.5-120 1.556-4.544 4.223-8.211 8-11 3.777 2.789 6.444 6.456 8 11 .5 39.999.667 79.999.5 120a98.283 98.283 0 0 1 24-1.5c2.257 1.496 4.257 3.163 6 5a3.943 3.943 0 0 1-1 2 849.932 849.932 0 0 1-8.5 4.5c-7.24-1.338-14.74-2.338-22.5-3v7z"/><path style="opacity:1" fill="#e7a61b" d="M57.5 144.5h11v4h-11v-4z"/><path style="opacity:1" fill="#dd9e1d" d="M62.5 133.5c3.261 2.276 6.928 3.61 11 4a1233.343 1233.343 0 0 1 18.5-3c2.815 1.47 5.649 2.97 8.5 4.5a849.932 849.932 0 0 1-8.5 4.5c-15.274-1.967-30.774-2.467-46.5-1.5a28.04 28.04 0 0 0-5 1.5l-2-2c-1.188 1.34-2.688 2.007-4.5 2a849.932 849.932 0 0 1-8.5-4.5 20.176 20.176 0 0 0 6-4c2.64-.839 4.973-.339 7 1.5a4.451 4.451 0 0 0 1.5-2c6.316 3.019 12.816 3.519 19.5 1.5 1.442-.377 2.442-1.21 3-2.5z"/><path style="opacity:1" fill="#e7a51c" d="M64.5 130.5v-115h-3v115c-1.411 2.039-3.411 3.039-6 3-.167-38.668 0-77.335.5-116 4.216-14.094 8.883-14.427 14-1 .5 38.999.667 77.999.5 117-2.447-.115-4.447-1.115-6-3z"/><path style="opacity:1" fill="#060302" d="M64.5 130.5a6357.509 6357.509 0 0 1-1.5-113 6357.509 6357.509 0 0 1-1.5 113v-115h3v115z"/><path style="opacity:1" fill="#7c271a" d="M57.5 150.5v-1h12v2c-3.9-.93-7.9-1.263-12-1z"/><path style="opacity:1" fill="#22160f" d="M57.5 150.5c4.1-.263 8.1.07 12 1a47.722 47.722 0 0 1 .5 16 15.83 15.83 0 0 1-3.5 5.5c4.718 5.395 3.551 8.895-3.5 10.5-6.285-1.406-7.785-4.906-4.5-10.5-3.58-7.369-3.913-14.869-1-22.5z"/><path style="opacity:1" fill="#db9d1e" d="M58.5 151.5c3.277-.284 6.443.049 9.5 1 2.621 7.31 1.788 14.143-2.5 20.5a9.818 9.818 0 0 1 2 5c.213 2.456-.787 3.456-3 3 2.76-2.574 2.426-4.74-1-6.5-3.384 1.771-3.718 3.938-1 6.5-1.284.684-2.45.517-3.5-.5-.778-2.775-.278-5.275 1.5-7.5-4.38-6.821-5.046-13.988-2-21.5z"/><path style="opacity:1" fill="#cc3022" d="M61.5 176.5h3v3h-3v-3z"/></svg>
